build/img/icons/whatsapp.svg

<svg width="15" height="15" viewBox="0 0 15 15" fill="none" xmlns="http://www.w3.org/2000/svg">
<path fill-rule="evenodd" clip-rule="evenodd" d="M7.5 14.972C6.08594 14.9684 4.70209 14.5626 3.51001 13.802L0 14.972L1.17004 11.461C0.288552 10.0543 -0.100415 8.39443 0.0644531 6.74254C0.229321 5.09066 0.938676 3.54044 2.08081 2.33568C3.22294 1.13093 4.73304 0.339996 6.37378 0.0872696C8.01452 -0.165457 9.6928 0.134345 11.1445 0.939565C12.5963 1.74478 13.7391 3.00968 14.3934 4.53539C15.0478 6.0611 15.1763 7.76106 14.759 9.36785C14.3417 10.9746 13.4022 12.3971 12.0881 13.4115C10.7741 14.426 9.16009 14.975 7.5 14.972ZM9.13 8.60796C9.62887 8.76933 10.1363 8.9029 10.65 9.00799C10.7041 9.01594 10.7559 9.03469 10.8025 9.06316C10.8491 9.09163 10.8895 9.12919 10.9213 9.17363C10.953 9.21807 10.9755 9.26851 10.9873 9.32183C10.9991 9.37515 11 9.43031 10.99 9.484V9.77196C10.9949 9.87475 10.9759 9.9773 10.9342 10.0714C10.8925 10.1655 10.8294 10.2485 10.75 10.314C10.5035 10.5641 10.2117 10.7651 9.89001 10.906C9.41547 10.9624 8.93433 10.9205 8.47668 10.7829C8.01904 10.6453 7.59467 10.4148 7.22998 10.1059C6.75979 9.79054 6.32115 9.43059 5.92004 9.031C5.52083 8.62783 5.15925 8.18897 4.83997 7.71996C4.53359 7.35504 4.30544 6.93111 4.16956 6.47442C4.03367 6.01773 3.99301 5.53804 4.05005 5.06499C4.19118 4.74512 4.39131 4.4547 4.64001 4.20897C4.70338 4.12792 4.78586 4.06389 4.88013 4.02269C4.9744 3.9815 5.07753 3.9644 5.18005 3.97295H5.46997C5.57935 3.95784 5.69033 3.98672 5.77844 4.05327C5.86655 4.11982 5.92456 4.21865 5.93994 4.32799C6.08994 4.91999 6.19998 5.34799 6.34998 5.82799C6.40998 6.02799 6.34005 6.07597 6.18005 6.19597C6.08005 6.27297 6.00004 6.32899 5.92004 6.38799C5.87365 6.40818 5.83202 6.43789 5.79785 6.47521C5.76368 6.51253 5.73771 6.55661 5.72168 6.6046C5.70565 6.6526 5.69983 6.70347 5.70471 6.75383C5.70959 6.8042 5.72505 6.85294 5.75 6.89696C6.00538 7.38848 6.33224 7.8394 6.71997 8.23497C7.11498 8.62344 7.56691 8.94948 8.06006 9.20195C8.1042 9.22648 8.15285 9.24161 8.20312 9.24633C8.2534 9.25105 8.30412 9.24524 8.35205 9.22936C8.39998 9.21348 8.44418 9.18785 8.48169 9.15404C8.5192 9.12023 8.54919 9.07898 8.56995 9.03295C8.62995 8.95195 8.68001 8.87596 8.76001 8.77196C8.77248 8.73601 8.79209 8.70294 8.81763 8.67473C8.84317 8.64653 8.87415 8.6238 8.90869 8.60784C8.94323 8.59188 8.98064 8.58301 9.01868 8.58184C9.05671 8.58066 9.09454 8.5872 9.13 8.601V8.60796Z" fill="white"/>
</svg>

<svg width="15" height="15" viewBox="0 0 15 15" fill="none" xmlns="http://www.w3.org/2000/svg">
    <path fill-rule="evenodd" clip-rule="evenodd" d="M7.5 14.972a7.453 7.453 0 0 1-3.99-1.17L0 14.972l1.17-3.511a7.486 7.486 0 1 1 6.33 3.511zm1.63-6.364a14.16 14.16 0 0 0 1.52.4.405.405 0 0 1 .34.476v.288a.661.661 0 0 1-.24.542c-.246.25-.538.451-.86.592a3.482 3.482 0 0 1-2.66-.8A8.807 8.807 0 0 1 5.92 9.03c-.4-.403-.76-.842-1.08-1.311a3.48 3.48 0 0 1-.79-2.655c.141-.32.341-.61.59-.856a.62.62 0 0 1 .54-.236h.29a.417.417 0 0 1 .47.355c.15.592.26 1.02.41 1.5.06.2-.01.248-.17.368-.1.077-.18.133-.26.192a.361.361 0 0 0-.17.509 5.6 5.6 0 0 0 .97 1.338 5.46 5.46 0 0 0 1.34.967.365.365 0 0 0 .51-.17c.06-.08.11-.156.19-.26a.283.283 0 0 1 .37-.171v.007z" fill="#fff"/>
</svg>
